Numix-Light/16/status/indicator-keyboard-Cs.svg

<?xml version="1.0" encoding="UTF-8" standalone="no"?>
<svg
   xmlns:dc="http://purl.org/dc/elements/1.1/"
   xmlns:cc="http://creativecommons.org/ns#"
   xmlns:rdf="http://www.w3.org/1999/02/22-rdf-syntax-ns#"
   xmlns:svg="http://www.w3.org/2000/svg"
   xmlns="http://www.w3.org/2000/svg"
   xmlns:sodipodi="http://sodipodi.sourceforge.net/DTD/sodipodi-0.dtd"
   xmlns:inkscape="http://www.inkscape.org/namespaces/inkscape"
   viewBox="0 0 16 16"
   id="svg2"
   version="1.1"
   inkscape:version="0.91 r13725"
   sodipodi:docname="indicator-keyboard-Cs.svg">
  <metadata
     id="metadata13">
    <rdf:RDF>
      <cc:Work
         rdf:about="">
        <dc:format>image/svg+xml</dc:format>
        <dc:type
           rdf:resource="http://purl.org/dc/dcmitype/StillImage" />
      </cc:Work>
    </rdf:RDF>
  </metadata>
  <defs
     id="defs11" />
  <sodipodi:namedview
     pagecolor="#ffffff"
     bordercolor="#666666"
     borderopacity="1"
     objecttolerance="10"
     gridtolerance="10"
     guidetolerance="10"
     inkscape:pageopacity="0"
     inkscape:pageshadow="2"
     inkscape:window-width="459"
     inkscape:window-height="369"
     id="namedview9"
     showgrid="false"
     inkscape:zoom="14.75"
     inkscape:cx="8"
     inkscape:cy="8"
     inkscape:window-x="65"
     inkscape:window-y="24"
     inkscape:window-maximized="0"
     inkscape:current-layer="svg2" />
  <path
     style="fill:#353535;fill-opacity:1"
     d="M 1.5996094 0 C 0.71320937 2.9605947e-16 0 0.71320937 0 1.5996094 L 0 14.400391 C 2.9605947e-16 15.286791 0.71320937 16 1.5996094 16 L 14.400391 16 C 15.286791 16 16 15.286791 16 14.400391 L 16 1.5996094 C 16 0.71320937 15.286791 0 14.400391 0 L 1.5996094 0 z M 6.6699219 4.7460938 C 6.9039219 4.7460938 7.1185469 4.7610156 7.3105469 4.7910156 C 7.5025469 4.8210156 7.6704531 4.8602031 7.8144531 4.9082031 C 7.9584531 4.9502031 8.0815938 4.9949688 8.1835938 5.0429688 C 8.2855937 5.0849687 8.3620156 5.1241563 8.4160156 5.1601562 L 8.21875 5.6914062 C 8.06875 5.6014063 7.8765781 5.5136875 7.6425781 5.4296875 C 7.4145781 5.3396875 7.1291094 5.2949219 6.7871094 5.2949219 C 6.3971094 5.2949219 6.0557188 5.3621406 5.7617188 5.4941406 C 5.4737188 5.6261406 5.2312031 5.8107813 5.0332031 6.0507812 C 4.8352031 6.2907813 4.6840313 6.57625 4.5820312 6.90625 C 4.4860312 7.23625 4.4394531 7.6019062 4.4394531 8.0039062 C 4.4394531 8.4179063 4.4860312 8.7929062 4.5820312 9.1289062 C 4.6840313 9.4589063 4.8314375 9.7406094 5.0234375 9.9746094 C 5.2154375 10.20861 5.4505625 10.389625 5.7265625 10.515625 C 6.0085625 10.641625 6.3294531 10.705078 6.6894531 10.705078 C 7.0854531 10.705078 7.4156875 10.667703 7.6796875 10.595703 C 7.9496875 10.517703 8.1530156 10.441281 8.2910156 10.363281 L 8.4609375 10.884766 C 8.4189375 10.914766 8.3480938 10.950187 8.2460938 10.992188 C 8.1440937 11.028188 8.015375 11.067375 7.859375 11.109375 C 7.703375 11.151375 7.5223594 11.184984 7.3183594 11.208984 C 7.1143594 11.238984 6.8867656 11.253906 6.6347656 11.253906 C 6.2327656 11.253906 5.8577656 11.181109 5.5097656 11.037109 C 5.1677656 10.893109 4.867375 10.684203 4.609375 10.408203 C 4.357375 10.132203 4.1558594 9.792625 4.0058594 9.390625 C 3.8618594 8.982625 3.7910156 8.5180937 3.7910156 7.9960938 C 3.7910156 7.4740938 3.8693906 7.011375 4.0253906 6.609375 C 4.1873906 6.201375 4.4000625 5.8599844 4.6640625 5.5839844 C 4.9280625 5.3079844 5.2340312 5.1008906 5.5820312 4.9628906 C 5.9300313 4.8188906 6.2919219 4.7460937 6.6699219 4.7460938 z M 10.751953 6.3574219 C 11.069953 6.3574219 11.331156 6.3854531 11.535156 6.4394531 C 11.745156 6.4934531 11.890609 6.5400313 11.974609 6.5820312 L 11.839844 7.1054688 C 11.767844 7.0694688 11.644703 7.0209375 11.470703 6.9609375 C 11.302703 6.9009375 11.054609 6.8710937 10.724609 6.8710938 C 10.592609 6.8710938 10.465703 6.8860156 10.345703 6.9160156 C 10.231703 6.9400156 10.131016 6.9810156 10.041016 7.0410156 C 9.9510159 7.0950156 9.8782187 7.1678125 9.8242188 7.2578125 C 9.7702188 7.3418125 9.7441406 7.4462656 9.7441406 7.5722656 C 9.7441406 7.6982656 9.7664531 7.8064844 9.8144531 7.8964844 C 9.8624531 7.9864844 9.9314846 8.0666719 10.021484 8.1386719 C 10.117484 8.2046719 10.231281 8.268125 10.363281 8.328125 C 10.501281 8.388125 10.658031 8.4553437 10.832031 8.5273438 C 11.012031 8.5993438 11.183703 8.6739531 11.345703 8.7519531 C 11.513703 8.8239531 11.661109 8.9134844 11.787109 9.0214844 C 11.913109 9.1234844 12.013797 9.2503906 12.091797 9.4003906 C 12.169797 9.5443906 12.208984 9.7272188 12.208984 9.9492188 C 12.208984 10.369219 12.050422 10.686344 11.732422 10.902344 C 11.420422 11.118344 10.991312 11.226562 10.445312 11.226562 C 10.037313 11.226562 9.7257656 11.191141 9.5097656 11.119141 C 9.2937656 11.053141 9.150125 11.000844 9.078125 10.964844 L 9.2304688 10.433594 C 9.2484687 10.445594 9.2876563 10.468047 9.3476562 10.498047 C 9.4076563 10.522047 9.4878437 10.551891 9.5898438 10.587891 C 9.6918438 10.617891 9.8112187 10.643969 9.9492188 10.667969 C 10.093218 10.691969 10.259312 10.705078 10.445312 10.705078 C 10.781313 10.705078 11.057437 10.650969 11.273438 10.542969 C 11.495437 10.428969 11.605469 10.23861 11.605469 9.9746094 C 11.605469 9.8486094 11.584969 9.7423438 11.542969 9.6523438 C 11.506969 9.5623438 11.443516 9.4802031 11.353516 9.4082031 C 11.263516 9.3362031 11.144141 9.2671719 10.994141 9.2011719 C 10.850141 9.1351719 10.671078 9.0567969 10.455078 8.9667969 C 10.281078 8.8947969 10.114984 8.8239531 9.9589844 8.7519531 C 9.8029844 8.6739531 9.6649219 8.5862344 9.5449219 8.4902344 C 9.4249219 8.3882344 9.3298125 8.2688594 9.2578125 8.1308594 C 9.1858125 7.9928594 9.1484375 7.8249531 9.1484375 7.6269531 C 9.1484375 7.2489531 9.2902656 6.9429844 9.5722656 6.7089844 C 9.8602654 6.4749844 10.253953 6.3574219 10.751953 6.3574219 z "
     id="path4" />
</svg>

<svg xmlns="http://www.w3.org/2000/svg" viewBox="0 0 16 16">
 <path d="m 1.6 0 c -0.886 0 -1.6 0.713 -1.6 1.6 l 0 12.801 c 0 0.886 0.713 1.6 1.6 1.6 l 12.801 0 c 0.886 0 1.6 -0.713 1.6 -1.6 l 0 -12.801 c 0 -0.886 -0.713 -1.6 -1.6 -1.6 l -12.801 0 z m 5.07 4.746 c 0.234 0 0.449 0.015 0.641 0.045 c 0.192 0.03 0.36 0.069 0.504 0.117 c 0.144 0.042 0.267 0.087 0.369 0.135 c 0.102 0.042 0.178 0.081 0.232 0.117 l -0.197 0.531 c -0.15 -0.09 -0.342 -0.178 -0.576 -0.262 c -0.228 -0.09 -0.513 -0.135 -0.855 -0.135 c -0.39 0 -0.731 0.067 -1.025 0.199 c -0.288 0.132 -0.531 0.317 -0.729 0.557 c -0.198 0.24 -0.349 0.525 -0.451 0.855 c -0.096 0.33 -0.143 0.696 -0.143 1.098 c 0 0.414 0.047 0.789 0.143 1.125 c 0.102 0.33 0.249 0.612 0.441 0.846 c 0.192 0.234 0.427 0.415 0.703 0.541 c 0.282 0.126 0.603 0.189 0.963 0.189 c 0.396 0 0.726 -0.037 0.99 -0.109 c 0.27 -0.078 0.473 -0.154 0.611 -0.232 l 0.17 0.521 c -0.042 0.03 -0.113 0.065 -0.215 0.107 c -0.102 0.036 -0.231 0.075 -0.387 0.117 c -0.156 0.042 -0.337 0.076 -0.541 0.1 c -0.204 0.03 -0.432 0.045 -0.684 0.045 c -0.402 0 -0.777 -0.073 -1.125 -0.217 c -0.342 -0.144 -0.642 -0.353 -0.9 -0.629 c -0.252 -0.276 -0.454 -0.616 -0.604 -1.018 c -0.144 -0.408 -0.215 -0.873 -0.215 -1.395 c 0 -0.522 0.078 -0.985 0.234 -1.387 c 0.162 -0.408 0.375 -0.749 0.639 -1.025 c 0.264 -0.276 0.57 -0.483 0.918 -0.621 c 0.348 -0.144 0.71 -0.217 1.088 -0.217 z m 4.082 1.611 c 0.318 0 0.579 0.028 0.783 0.082 c 0.21 0.054 0.355 0.101 0.439 0.143 l -0.135 0.523 c -0.072 -0.036 -0.195 -0.085 -0.369 -0.145 c -0.168 -0.06 -0.416 -0.09 -0.746 -0.09 c -0.132 0 -0.259 0.015 -0.379 0.045 c -0.114 0.024 -0.215 0.065 -0.305 0.125 c -0.09 0.054 -0.163 0.127 -0.217 0.217 c -0.054 0.084 -0.08 0.188 -0.08 0.314 c 0 0.126 0.022 0.234 0.07 0.324 c 0.048 0.09 0.117 0.17 0.207 0.242 c 0.096 0.066 0.21 0.129 0.342 0.189 c 0.138 0.06 0.295 0.127 0.469 0.199 c 0.18 0.072 0.352 0.147 0.514 0.225 c 0.168 0.072 0.315 0.162 0.441 0.27 c 0.126 0.102 0.227 0.229 0.305 0.379 c 0.078 0.144 0.117 0.327 0.117 0.549 c 0 0.42 -0.159 0.737 -0.477 0.953 c -0.312 0.216 -0.741 0.324 -1.287 0.324 c -0.408 0 -0.72 -0.035 -0.936 -0.107 c -0.216 -0.066 -0.36 -0.118 -0.432 -0.154 l 0.152 -0.531 c 0.018 0.012 0.057 0.034 0.117 0.064 c 0.06 0.024 0.14 0.054 0.242 0.09 c 0.102 0.03 0.221 0.056 0.359 0.08 c 0.144 0.024 0.31 0.037 0.496 0.037 c 0.336 0 0.612 -0.054 0.828 -0.162 c 0.222 -0.114 0.332 -0.304 0.332 -0.568 c 0 -0.126 -0.021 -0.232 -0.063 -0.322 c -0.036 -0.09 -0.099 -0.172 -0.189 -0.244 c -0.09 -0.072 -0.209 -0.141 -0.359 -0.207 c -0.144 -0.066 -0.323 -0.144 -0.539 -0.234 c -0.174 -0.072 -0.34 -0.143 -0.496 -0.215 c -0.156 -0.078 -0.294 -0.166 -0.414 -0.262 c -0.12 -0.102 -0.215 -0.221 -0.287 -0.359 c -0.072 -0.138 -0.109 -0.306 -0.109 -0.504 c 0 -0.378 0.142 -0.684 0.424 -0.918 c 0.288 -0.234 0.682 -0.352 1.18 -0.352 z" style="fill:#353535;fill-opacity:1"/>
</svg>
